report_00007_2020-12-11T15:55:29.892Z/network-server-latency/comparison/line/1_vs_2.svg

<svg width="640" height="500" xmlns="http://www.w3.org/2000/svg" xmlns:xlink="http://www.w3.org/1999/xlink"><path fill="#fff" d="M0 0h640v500H0z"/><defs><path id="d" stroke-width=".222" stroke="currentColor" d="M-1-1h2v2h-2z"/><path id="b" stroke-width=".222" stroke="currentColor" d="M0-1.33l-1.33 2h2.66z"/><path id="f" stroke-width=".222" stroke="currentColor" d="M0 1.33L1.265.411.782-1.067l-1.564-.009-.483 1.487z"/><use xlink:href="#b" id="c" stroke="currentColor" transform="rotate(180)"/><use xlink:href="#d" id="e" stroke="currentColor" transform="rotate(45)"/><circle id="a" stroke-width=".222" stroke="currentColor" cx="0" cy="0" r="1"/></defs><g fill="none" color="#000" stroke="currentColor"><path stroke="#000" d="M53.9 439.9h9m552.1 0h-9"/><text transform="translate(45.6 443.8)" stroke="none" fill="#000" font-family="Arial" font-size="12" text-anchor="end"><tspan>0</tspan></text></g><g fill="none" color="#000" stroke="currentColor"><path stroke="#000" d="M53.9 396.2h9m552.1 0h-9"/><text transform="translate(45.6 400.1)" stroke="none" fill="#000" font-family="Arial" font-size="12" text-anchor="end"><tspan>100</tspan></text></g><g fill="none" color="#000" stroke="currentColor"><path stroke="#000" d="M53.9 352.4h9m552.1 0h-9"/><text transform="translate(45.6 356.3)" stroke="none" fill="#000" font-family="Arial" font-size="12" text-anchor="end"><tspan>200</tspan></text></g><g fill="none" color="#000" stroke="currentColor"><path stroke="#000" d="M53.9 308.6h9m552.1 0h-9"/><text transform="translate(45.6 312.5)" stroke="none" fill="#000" font-family="Arial" font-size="12" text-anchor="end"><tspan>300</tspan></text></g><g fill="none" color="#000" stroke="currentColor"><path stroke="#000" d="M53.9 264.9h9m552.1 0h-9"/><text transform="translate(45.6 268.8)" stroke="none" fill="#000" font-family="Arial" font-size="12" text-anchor="end"><tspan>400</tspan></text></g><g fill="none" color="#000" stroke="currentColor"><path stroke="#000" d="M53.9 221.1h9m552.1 0h-9"/><text transform="translate(45.6 225)" stroke="none" fill="#000" font-family="Arial" font-size="12" text-anchor="end"><tspan>500</tspan></text></g><g fill="none" color="#000" stroke="currentColor"><path stroke="#000" d="M53.9 177.3h9m552.1 0h-9"/><text transform="translate(45.6 181.2)" stroke="none" fill="#000" font-family="Arial" font-size="12" text-anchor="end"><tspan>600</tspan></text></g><g fill="none" color="#000" stroke="currentColor"><path stroke="#000" d="M53.9 133.6h9m552.1 0h-9"/><text transform="translate(45.6 137.5)" stroke="none" fill="#000" font-family="Arial" font-size="12" text-anchor="end"><tspan>700</tspan></text></g><g fill="none" color="#000" stroke="currentColor"><path stroke="#000" d="M53.9 89.8h9m552.1 0h-9"/><text transform="translate(45.6 93.7)" stroke="none" fill="#000" font-family="Arial" font-size="12" text-anchor="end"><tspan>800</tspan></text></g><g fill="none" color="#000" stroke="currentColor"><path stroke="#000" d="M53.9 46h9M615 46h-9"/><text transform="translate(45.6 49.9)" stroke="none" fill="#000" font-family="Arial" font-size="12" text-anchor="end"><tspan>900</tspan></text></g><g fill="none" color="#000" stroke="currentColor"><path stroke="#000" d="M53.9 446v-9m0-418.9v9"/><text transform="translate(53.9 467.9)" stroke="none" fill="#000" font-family="Arial" font-size="12" text-anchor="middle"><tspan>0</tspan></text></g><g fill="none" color="#000" stroke="currentColor"><path stroke="#000" d="M110.6 446v-9m0-418.9v9"/><text transform="translate(110.6 467.9)" stroke="none" fill="#000" font-family="Arial" font-size="12" text-anchor="middle"><tspan>10</tspan></text></g><g fill="none" color="#000" stroke="currentColor"><path stroke="#000" d="M167.3 446v-9m0-418.9v9"/><text transform="translate(167.3 467.9)" stroke="none" fill="#000" font-family="Arial" font-size="12" text-anchor="middle"><tspan>20</tspan></text></g><g fill="none" color="#000" stroke="currentColor"><path stroke="#000" d="M223.9 446v-9m0-418.9v9"/><text transform="translate(223.9 467.9)" stroke="none" fill="#000" font-family="Arial" font-size="12" text-anchor="middle"><tspan>30</tspan></text></g><g fill="none" color="#000" stroke="currentColor"><path stroke="#000" d="M280.6 446v-9m0-418.9v9"/><text transform="translate(280.6 467.9)" stroke="none" fill="#000" font-family="Arial" font-size="12" text-anchor="middle"><tspan>40</tspan></text></g><g fill="none" color="#000" stroke="currentColor"><path stroke="#000" d="M337.3 446v-9m0-418.9v9"/><text transform="translate(337.3 467.9)" stroke="none" fill="#000" font-family="Arial" font-size="12" text-anchor="middle"><tspan>50</tspan></text></g><g fill="none" color="#000" stroke="currentColor"><path stroke="#000" d="M394 446v-9m0-418.9v9"/><text transform="translate(394 467.9)" stroke="none" fill="#000" font-family="Arial" font-size="12" text-anchor="middle"><tspan>60</tspan></text></g><g fill="none" color="#000" stroke="currentColor"><path stroke="#000" d="M450.6 446v-9m0-418.9v9"/><text transform="translate(450.6 467.9)" stroke="none" fill="#000" font-family="Arial" font-size="12" text-anchor="middle"><tspan>70</tspan></text></g><g fill="none" color="#000" stroke="currentColor"><path stroke="#000" d="M507.3 446v-9m0-418.9v9"/><text transform="translate(507.3 467.9)" stroke="none" fill="#000" font-family="Arial" font-size="12" text-anchor="middle"><tspan>80</tspan></text></g><g fill="none" color="#000" stroke="currentColor"><path stroke="#000" d="M564 446v-9m0-418.9v9"/><text transform="translate(564 467.9)" stroke="none" fill="#000" font-family="Arial" font-size="12" text-anchor="middle"><tspan>90</tspan></text></g><path stroke="#000" d="M53.9 18.1V446H615V18.1H53.9z" fill="none" color="#000"/><text transform="translate(275.6 485.9)" stroke="none" fill="#000" font-family="Arial" font-size="12" text-anchor="end" color="#000"><tspan>pages</tspan></text><path stroke="#9400D3" d="M283.9 482h42.2M53.9 26.3l5.7 90.4 5.6 3.1 5.7-5 5.7 3.7 5.6 7.1 5.7 1.9 5.7-8.1 5.6 4 5.7-7 5.7 10.9 5.6-47.3 5.7 39.9 5.7-5.9 5.6 12.1 5.7-8.8 5.7 2.6 5.7 4.5 5.6.3 5.7-.7 5.7-11.5 5.6 6.6 5.7-46.9 5.7 41.8 5.6 3.3 5.7-2.1 5.7 10.4 5.6-1.2 5.7-6 5.7 3.6 5.6-5.6 5.7 8.6 5.7-7.9 5.6 9.7 5.7-57.3 5.7 54.5 5.6.7 5.7-7.4 5.7 7.2 5.6-1 5.7 2 5.7-9.6 5.6 7.3 5.7-2.4 5.7 4.7 5.6-56.9 5.7 56.3 5.7-12.2 5.6 9.3 5.7-2.3 5.7 6.7 5.7-10 5.6 4 5.7 4.5 5.7-35.6 5.6 37 5.7-59.3 5.7 60.7 5.6-2.3 5.7 1.1 5.7-5.6 5.6 4.7 5.7-3.2 5.7 5.2 5.6-7 5.7-3 5.7 8 5.6 2.5 5.7-62.4L445 126h5.6l5.7-6.8 5.7 4.6 5.6-2 5.7-4.4 5.7 3.5 5.6.9 5.7-2 5.7-3.8 5.6-44.3 5.7 52.2 5.7-6 5.6.6 5.7 8 5.7-10.1 5.7 2.2 5.6 7 5.7-1.7 5.7-4.6 5.6-53.6 5.7 54.9 5.7 2.3 5.6 1.3 5.7-11.9 5.7 11.2 5.6-2.3 5.7 4 5.7-11.3 5.6 2.8 5.7 1.7" fill="none" color="#000"/><text transform="translate(434 485.9)" stroke="none" fill="#000" font-family="Arial" font-size="12" text-anchor="end" color="#000"><tspan>pages+cached</tspan></text><path stroke="#009E73" d="M442.3 482h42.2M53.9 120.1l5.7 315.3 5.6 2.1 5.7-2.3 5.7 1.1 5.6-1.6 5.7 1.4 5.7 1 5.6-.2 5.7-1.1 5.7 1.1h5.6l5.7.4 5.7-.2h5.6l5.7-.1 5.7-1 5.7-.7 5.6.8 5.7 1.2 5.7-1.3 5.6 1.1 5.7-.3 5.7.3 5.6.4 5.7-.4 5.7-1.1 5.6 1.2 5.7.2 5.7-.6 5.6.6 5.7-1.2 5.7-.1 5.6.4h5.7l5.7-.4 5.6-.3 5.7 1.3 5.7.6 5.6-.4h5.7l5.7-.3 5.6.2 5.7-.8 5.7.9 5.6-.2 5.7-.6 5.7-1.3 5.6 2.1 5.7-.1 5.7.2 5.7-.2 5.6-.7 5.7-.8 5.7 1.4 5.6-1.3 5.7-.2 5.7 1.5 5.6.4 5.7-1.3 5.7.7 5.6-.9 5.7 1 5.7.1 5.6.1 5.7-.8 5.7.4 5.6.7 5.7-2.4 5.7.5 5.6-.6 5.7.6 5.7 1.6 5.6.2 5.7-1.8 5.7 1.9 5.6-.2 5.7-1 5.7 1 5.6-.7 5.7.6 5.7.2 5.6-.7 5.7-.8 5.7.1 5.7 1.4 5.6.1 5.7-.1 5.7.2 5.6-.1 5.7-.7 5.7-.5 5.6.7 5.7.3 5.7.1 5.6.2 5.7.2 5.7-.5 5.6-1.4 5.7 1.2" fill="none" color="#000"/><g fill="none" color="#000" stroke="currentColor"><path stroke="#000" d="M53.9 18.1V446H615V18.1H53.9z"/></g></svg>

<?xml version="1.0" encoding="utf-8"  standalone="no"?>
<svg 
 width="640" height="500"
 viewBox="0 0 640 500"
 xmlns="http://www.w3.org/2000/svg"
 xmlns:xlink="http://www.w3.org/1999/xlink"
>

<title>Gnuplot</title>
<desc>Produced by GNUPLOT 5.4 patchlevel 0 </desc>

<g id="gnuplot_canvas">

<rect x="0" y="0" width="640" height="500" fill="#ffffff"/>
<defs>

	<circle id='gpDot' r='0.5' stroke-width='0.5' stroke='currentColor'/>
	<path id='gpPt0' stroke-width='0.222' stroke='currentColor' d='M-1,0 h2 M0,-1 v2'/>
	<path id='gpPt1' stroke-width='0.222' stroke='currentColor' d='M-1,-1 L1,1 M1,-1 L-1,1'/>
	<path id='gpPt2' stroke-width='0.222' stroke='currentColor' d='M-1,0 L1,0 M0,-1 L0,1 M-1,-1 L1,1 M-1,1 L1,-1'/>
	<rect id='gpPt3' stroke-width='0.222' stroke='currentColor' x='-1' y='-1' width='2' height='2'/>
	<rect id='gpPt4' stroke-width='0.222' stroke='currentColor' fill='currentColor' x='-1' y='-1' width='2' height='2'/>
	<circle id='gpPt5' stroke-width='0.222' stroke='currentColor' cx='0' cy='0' r='1'/>
	<use xlink:href='#gpPt5' id='gpPt6' fill='currentColor' stroke='none'/>
	<path id='gpPt7' stroke-width='0.222' stroke='currentColor' d='M0,-1.33 L-1.33,0.67 L1.33,0.67 z'/>
	<use xlink:href='#gpPt7' id='gpPt8' fill='currentColor' stroke='none'/>
	<use xlink:href='#gpPt7' id='gpPt9' stroke='currentColor' transform='rotate(180)'/>
	<use xlink:href='#gpPt9' id='gpPt10' fill='currentColor' stroke='none'/>
	<use xlink:href='#gpPt3' id='gpPt11' stroke='currentColor' transform='rotate(45)'/>
	<use xlink:href='#gpPt11' id='gpPt12' fill='currentColor' stroke='none'/>
	<path id='gpPt13' stroke-width='0.222' stroke='currentColor' d='M0,1.330 L1.265,0.411 L0.782,-1.067 L-0.782,-1.076 L-1.265,0.411 z'/>
	<use xlink:href='#gpPt13' id='gpPt14' fill='currentColor' stroke='none'/>
	<filter id='textbox' filterUnits='objectBoundingBox' x='0' y='0' height='1' width='1'>
	  <feFlood flood-color='#FFFFFF' flood-opacity='1' result='bgnd'/>
	  <feComposite in='SourceGraphic' in2='bgnd' operator='atop'/>
	</filter>
	<filter id='greybox' filterUnits='objectBoundingBox' x='0' y='0' height='1' width='1'>
	  <feFlood flood-color='lightgrey' flood-opacity='1' result='grey'/>
	  <feComposite in='SourceGraphic' in2='grey' operator='atop'/>
	</filter>
</defs>
<g fill="none" color="#FFFFFF" stroke="black" stroke-width="1.00" stroke-linecap="butt" stroke-linejoin="miter">
</g>
<g fill="none" color="black" stroke="currentColor" stroke-width="1.00" stroke-linecap="butt" stroke-linejoin="miter">
	<path stroke='black'  d='M53.9,439.9 L62.9,439.9 M615.0,439.9 L606.0,439.9  '/>	<g transform="translate(45.6,443.8)" stroke="none" fill="black" font-family="Arial" font-size="12.00"  text-anchor="end">
		<text><tspan font-family="Arial" > 0</tspan></text>
	</g>
</g>
<g fill="none" color="black" stroke="currentColor" stroke-width="1.00" stroke-linecap="butt" stroke-linejoin="miter">
	<path stroke='black'  d='M53.9,396.2 L62.9,396.2 M615.0,396.2 L606.0,396.2  '/>	<g transform="translate(45.6,400.1)" stroke="none" fill="black" font-family="Arial" font-size="12.00"  text-anchor="end">
		<text><tspan font-family="Arial" > 100</tspan></text>
	</g>
</g>
<g fill="none" color="black" stroke="currentColor" stroke-width="1.00" stroke-linecap="butt" stroke-linejoin="miter">
	<path stroke='black'  d='M53.9,352.4 L62.9,352.4 M615.0,352.4 L606.0,352.4  '/>	<g transform="translate(45.6,356.3)" stroke="none" fill="black" font-family="Arial" font-size="12.00"  text-anchor="end">
		<text><tspan font-family="Arial" > 200</tspan></text>
	</g>
</g>
<g fill="none" color="black" stroke="currentColor" stroke-width="1.00" stroke-linecap="butt" stroke-linejoin="miter">
	<path stroke='black'  d='M53.9,308.6 L62.9,308.6 M615.0,308.6 L606.0,308.6  '/>	<g transform="translate(45.6,312.5)" stroke="none" fill="black" font-family="Arial" font-size="12.00"  text-anchor="end">
		<text><tspan font-family="Arial" > 300</tspan></text>
	</g>
</g>
<g fill="none" color="black" stroke="currentColor" stroke-width="1.00" stroke-linecap="butt" stroke-linejoin="miter">
	<path stroke='black'  d='M53.9,264.9 L62.9,264.9 M615.0,264.9 L606.0,264.9  '/>	<g transform="translate(45.6,268.8)" stroke="none" fill="black" font-family="Arial" font-size="12.00"  text-anchor="end">
		<text><tspan font-family="Arial" > 400</tspan></text>
	</g>
</g>
<g fill="none" color="black" stroke="currentColor" stroke-width="1.00" stroke-linecap="butt" stroke-linejoin="miter">
	<path stroke='black'  d='M53.9,221.1 L62.9,221.1 M615.0,221.1 L606.0,221.1  '/>	<g transform="translate(45.6,225.0)" stroke="none" fill="black" font-family="Arial" font-size="12.00"  text-anchor="end">
		<text><tspan font-family="Arial" > 500</tspan></text>
	</g>
</g>
<g fill="none" color="black" stroke="currentColor" stroke-width="1.00" stroke-linecap="butt" stroke-linejoin="miter">
	<path stroke='black'  d='M53.9,177.3 L62.9,177.3 M615.0,177.3 L606.0,177.3  '/>	<g transform="translate(45.6,181.2)" stroke="none" fill="black" font-family="Arial" font-size="12.00"  text-anchor="end">
		<text><tspan font-family="Arial" > 600</tspan></text>
	</g>
</g>
<g fill="none" color="black" stroke="currentColor" stroke-width="1.00" stroke-linecap="butt" stroke-linejoin="miter">
	<path stroke='black'  d='M53.9,133.6 L62.9,133.6 M615.0,133.6 L606.0,133.6  '/>	<g transform="translate(45.6,137.5)" stroke="none" fill="black" font-family="Arial" font-size="12.00"  text-anchor="end">
		<text><tspan font-family="Arial" > 700</tspan></text>
	</g>
</g>
<g fill="none" color="black" stroke="currentColor" stroke-width="1.00" stroke-linecap="butt" stroke-linejoin="miter">
	<path stroke='black'  d='M53.9,89.8 L62.9,89.8 M615.0,89.8 L606.0,89.8  '/>	<g transform="translate(45.6,93.7)" stroke="none" fill="black" font-family="Arial" font-size="12.00"  text-anchor="end">
		<text><tspan font-family="Arial" > 800</tspan></text>
	</g>
</g>
<g fill="none" color="black" stroke="currentColor" stroke-width="1.00" stroke-linecap="butt" stroke-linejoin="miter">
	<path stroke='black'  d='M53.9,46.0 L62.9,46.0 M615.0,46.0 L606.0,46.0  '/>	<g transform="translate(45.6,49.9)" stroke="none" fill="black" font-family="Arial" font-size="12.00"  text-anchor="end">
		<text><tspan font-family="Arial" > 900</tspan></text>
	</g>
</g>
<g fill="none" color="black" stroke="currentColor" stroke-width="1.00" stroke-linecap="butt" stroke-linejoin="miter">
	<path stroke='black'  d='M53.9,446.0 L53.9,437.0 M53.9,18.1 L53.9,27.1  '/>	<g transform="translate(53.9,467.9)" stroke="none" fill="black" font-family="Arial" font-size="12.00"  text-anchor="middle">
		<text><tspan font-family="Arial" > 0</tspan></text>
	</g>
</g>
<g fill="none" color="black" stroke="currentColor" stroke-width="1.00" stroke-linecap="butt" stroke-linejoin="miter">
	<path stroke='black'  d='M110.6,446.0 L110.6,437.0 M110.6,18.1 L110.6,27.1  '/>	<g transform="translate(110.6,467.9)" stroke="none" fill="black" font-family="Arial" font-size="12.00"  text-anchor="middle">
		<text><tspan font-family="Arial" > 10</tspan></text>
	</g>
</g>
<g fill="none" color="black" stroke="currentColor" stroke-width="1.00" stroke-linecap="butt" stroke-linejoin="miter">
	<path stroke='black'  d='M167.3,446.0 L167.3,437.0 M167.3,18.1 L167.3,27.1  '/>	<g transform="translate(167.3,467.9)" stroke="none" fill="black" font-family="Arial" font-size="12.00"  text-anchor="middle">
		<text><tspan font-family="Arial" > 20</tspan></text>
	</g>
</g>
<g fill="none" color="black" stroke="currentColor" stroke-width="1.00" stroke-linecap="butt" stroke-linejoin="miter">
	<path stroke='black'  d='M223.9,446.0 L223.9,437.0 M223.9,18.1 L223.9,27.1  '/>	<g transform="translate(223.9,467.9)" stroke="none" fill="black" font-family="Arial" font-size="12.00"  text-anchor="middle">
		<text><tspan font-family="Arial" > 30</tspan></text>
	</g>
</g>
<g fill="none" color="black" stroke="currentColor" stroke-width="1.00" stroke-linecap="butt" stroke-linejoin="miter">
	<path stroke='black'  d='M280.6,446.0 L280.6,437.0 M280.6,18.1 L280.6,27.1  '/>	<g transform="translate(280.6,467.9)" stroke="none" fill="black" font-family="Arial" font-size="12.00"  text-anchor="middle">
		<text><tspan font-family="Arial" > 40</tspan></text>
	</g>
</g>
<g fill="none" color="black" stroke="currentColor" stroke-width="1.00" stroke-linecap="butt" stroke-linejoin="miter">
	<path stroke='black'  d='M337.3,446.0 L337.3,437.0 M337.3,18.1 L337.3,27.1  '/>	<g transform="translate(337.3,467.9)" stroke="none" fill="black" font-family="Arial" font-size="12.00"  text-anchor="middle">
		<text><tspan font-family="Arial" > 50</tspan></text>
	</g>
</g>
<g fill="none" color="black" stroke="currentColor" stroke-width="1.00" stroke-linecap="butt" stroke-linejoin="miter">
	<path stroke='black'  d='M394.0,446.0 L394.0,437.0 M394.0,18.1 L394.0,27.1  '/>	<g transform="translate(394.0,467.9)" stroke="none" fill="black" font-family="Arial" font-size="12.00"  text-anchor="middle">
		<text><tspan font-family="Arial" > 60</tspan></text>
	</g>
</g>
<g fill="none" color="black" stroke="currentColor" stroke-width="1.00" stroke-linecap="butt" stroke-linejoin="miter">
	<path stroke='black'  d='M450.6,446.0 L450.6,437.0 M450.6,18.1 L450.6,27.1  '/>	<g transform="translate(450.6,467.9)" stroke="none" fill="black" font-family="Arial" font-size="12.00"  text-anchor="middle">
		<text><tspan font-family="Arial" > 70</tspan></text>
	</g>
</g>
<g fill="none" color="black" stroke="currentColor" stroke-width="1.00" stroke-linecap="butt" stroke-linejoin="miter">
	<path stroke='black'  d='M507.3,446.0 L507.3,437.0 M507.3,18.1 L507.3,27.1  '/>	<g transform="translate(507.3,467.9)" stroke="none" fill="black" font-family="Arial" font-size="12.00"  text-anchor="middle">
		<text><tspan font-family="Arial" > 80</tspan></text>
	</g>
</g>
<g fill="none" color="black" stroke="currentColor" stroke-width="1.00" stroke-linecap="butt" stroke-linejoin="miter">
	<path stroke='black'  d='M564.0,446.0 L564.0,437.0 M564.0,18.1 L564.0,27.1  '/>	<g transform="translate(564.0,467.9)" stroke="none" fill="black" font-family="Arial" font-size="12.00"  text-anchor="middle">
		<text><tspan font-family="Arial" > 90</tspan></text>
	</g>
</g>
<g fill="none" color="black" stroke="currentColor" stroke-width="1.00" stroke-linecap="butt" stroke-linejoin="miter">
</g>
<g fill="none" color="black" stroke="currentColor" stroke-width="1.00" stroke-linecap="butt" stroke-linejoin="miter">
	<path stroke='black'  d='M53.9,18.1 L53.9,446.0 L615.0,446.0 L615.0,18.1 L53.9,18.1 Z  '/></g>
<g fill="none" color="black" stroke="currentColor" stroke-width="1.00" stroke-linecap="butt" stroke-linejoin="miter">
</g>
	<g id="gnuplot_plot_1" ><title>pages</title>
<g fill="none" color="black" stroke="currentColor" stroke-width="1.00" stroke-linecap="butt" stroke-linejoin="miter">
	<g transform="translate(275.6,485.9)" stroke="none" fill="black" font-family="Arial" font-size="12.00"  text-anchor="end">
		<text><tspan font-family="Arial" >pages</tspan></text>
	</g>
</g>
<g fill="none" color="black" stroke="currentColor" stroke-width="1.00" stroke-linecap="butt" stroke-linejoin="miter">
	<path stroke='rgb(148,   0, 211)'  d='M283.9,482.0 L326.1,482.0 M53.9,26.3 L59.6,116.7 L65.2,119.8 L70.9,114.8 L76.6,118.5 L82.2,125.6
		L87.9,127.5 L93.6,119.4 L99.2,123.4 L104.9,116.4 L110.6,127.3 L116.2,80.0 L121.9,119.9 L127.6,114.0
		L133.2,126.1 L138.9,117.3 L144.6,119.9 L150.3,124.4 L155.9,124.7 L161.6,124.0 L167.3,112.5 L172.9,119.1
		L178.6,72.2 L184.3,114.0 L189.9,117.3 L195.6,115.2 L201.3,125.6 L206.9,124.4 L212.6,118.4 L218.3,122.0
		L223.9,116.4 L229.6,125.0 L235.3,117.1 L240.9,126.8 L246.6,69.5 L252.3,124.0 L257.9,124.7 L263.6,117.3
		L269.3,124.5 L274.9,123.5 L280.6,125.5 L286.3,115.9 L291.9,123.2 L297.6,120.8 L303.3,125.5 L308.9,68.6
		L314.6,124.9 L320.3,112.7 L325.9,122.0 L331.6,119.7 L337.3,126.4 L343.0,116.4 L348.6,120.4 L354.3,124.9
		L360.0,89.3 L365.6,126.3 L371.3,67.0 L377.0,127.7 L382.6,125.4 L388.3,126.5 L394.0,120.9 L399.6,125.6
		L405.3,122.4 L411.0,127.6 L416.6,120.6 L422.3,117.6 L428.0,125.6 L433.6,128.1 L439.3,65.7 L445.0,126.0
		L450.6,126.0 L456.3,119.2 L462.0,123.8 L467.6,121.8 L473.3,117.4 L479.0,120.9 L484.6,121.8 L490.3,119.8
		L496.0,116.0 L501.6,71.7 L507.3,123.9 L513.0,117.9 L518.6,118.5 L524.3,126.5 L530.0,116.4 L535.7,118.6
		L541.3,125.6 L547.0,123.9 L552.7,119.3 L558.3,65.7 L564.0,120.6 L569.7,122.9 L575.3,124.2 L581.0,112.3
		L586.7,123.5 L592.3,121.2 L598.0,125.2 L603.7,113.9 L609.3,116.7 L615.0,118.4  '/></g>
	</g>
	<g id="gnuplot_plot_2" ><title>pages+cached</title>
<g fill="none" color="black" stroke="currentColor" stroke-width="1.00" stroke-linecap="butt" stroke-linejoin="miter">
	<g transform="translate(434.0,485.9)" stroke="none" fill="black" font-family="Arial" font-size="12.00"  text-anchor="end">
		<text><tspan font-family="Arial" >pages+cached</tspan></text>
	</g>
</g>
<g fill="none" color="black" stroke="currentColor" stroke-width="1.00" stroke-linecap="butt" stroke-linejoin="miter">
	<path stroke='rgb(  0, 158, 115)'  d='M442.3,482.0 L484.5,482.0 M53.9,120.1 L59.6,435.4 L65.2,437.5 L70.9,435.2 L76.6,436.3 L82.2,434.7
		L87.9,436.1 L93.6,437.1 L99.2,436.9 L104.9,435.8 L110.6,436.9 L116.2,436.9 L121.9,437.3 L127.6,437.1
		L133.2,437.1 L138.9,437.0 L144.6,436.0 L150.3,435.3 L155.9,436.1 L161.6,437.3 L167.3,436.0 L172.9,437.1
		L178.6,436.8 L184.3,437.1 L189.9,437.5 L195.6,437.1 L201.3,436.0 L206.9,437.2 L212.6,437.4 L218.3,436.8
		L223.9,437.4 L229.6,436.2 L235.3,436.1 L240.9,436.5 L246.6,436.5 L252.3,436.1 L257.9,435.8 L263.6,437.1
		L269.3,437.7 L274.9,437.3 L280.6,437.3 L286.3,437.0 L291.9,437.2 L297.6,436.4 L303.3,437.3 L308.9,437.1
		L314.6,436.5 L320.3,435.2 L325.9,437.3 L331.6,437.2 L337.3,437.4 L343.0,437.2 L348.6,436.5 L354.3,435.7
		L360.0,437.1 L365.6,435.8 L371.3,435.6 L377.0,437.1 L382.6,437.5 L388.3,436.2 L394.0,436.9 L399.6,436.0
		L405.3,437.0 L411.0,437.1 L416.6,437.2 L422.3,436.4 L428.0,436.8 L433.6,437.5 L439.3,435.1 L445.0,435.6
		L450.6,435.0 L456.3,435.6 L462.0,437.2 L467.6,437.4 L473.3,435.6 L479.0,437.5 L484.6,437.3 L490.3,436.3
		L496.0,437.3 L501.6,436.6 L507.3,437.2 L513.0,437.4 L518.6,436.7 L524.3,435.9 L530.0,436.0 L535.7,437.4
		L541.3,437.5 L547.0,437.4 L552.7,437.6 L558.3,437.5 L564.0,436.8 L569.7,436.3 L575.3,437.0 L581.0,437.3
		L586.7,437.4 L592.3,437.6 L598.0,437.8 L603.7,437.3 L609.3,435.9 L615.0,437.1  '/></g>
	</g>
<g fill="none" color="#FFFFFF" stroke="rgb(  0, 158, 115)" stroke-width="2.00" stroke-linecap="butt" stroke-linejoin="miter">
</g>
<g fill="none" color="black" stroke="currentColor" stroke-width="2.00" stroke-linecap="butt" stroke-linejoin="miter">
</g>
<g fill="none" color="black" stroke="black" stroke-width="1.00" stroke-linecap="butt" stroke-linejoin="miter">
</g>
<g fill="none" color="black" stroke="currentColor" stroke-width="1.00" stroke-linecap="butt" stroke-linejoin="miter">
	<path stroke='black'  d='M53.9,18.1 L53.9,446.0 L615.0,446.0 L615.0,18.1 L53.9,18.1 Z  '/></g>
<g fill="none" color="black" stroke="currentColor" stroke-width="1.00" stroke-linecap="butt" stroke-linejoin="miter">
</g>
</g>
</svg>
